X:95
T: KREIS KREIS KESSEL
N: K2074
O: Europa, Mitteleuropa, Deutschland, Erfurt
R: Kinder - Lied, Reigen, Tanz - Spiel
M: 2/4
L: 1/8
K: G
 | G2B2 | d2B2 |
GABc | d2B2 |
ddBG | eed2 |
ccBB | AAG2

@@@ Tune index: 7432
